src/assets/icons/check-circle.svg

<svg width="14" height="14" viewBox="0 0 14 14" fill="none" xmlns="http://www.w3.org/2000/svg">
<g id="check-circle">
<g clip-path="url(#clip0_156_4601)">
<path id="Vector" fill-rule="evenodd" clip-rule="evenodd" d="M6.396 1.19899C7.20248 1.1141 7.97958 1.19892 8.70065 1.41807C9.00887 1.51175 9.33467 1.33783 9.42834 1.02961C9.52201 0.721394 9.34809 0.395598 9.03988 0.301924C8.17443 0.0388966 7.24057 -0.062921 6.27388 0.0388362C5.31044 0.140251 4.40977 0.428165 3.61606 0.871963C2.8284 1.31237 2.13413 1.89663 1.56698 2.59075C0.998295 3.28676 0.565245 4.0932 0.301803 4.96C0.0387765 5.82545 -0.0630435 6.75931 0.0387138 7.726C0.140129 8.68944 0.428043 9.59011 0.871841 10.3838C1.31225 11.1715 1.89651 11.8657 2.59063 12.4329C3.28664 13.0016 4.09307 13.4346 4.95988 13.6981C5.82533 13.9611 6.75919 14.0629 7.72588 13.9612C8.68932 13.8597 9.58999 13.5718 10.3837 13.128C11.1714 12.6876 11.8656 12.1034 12.4328 11.4092C13.0015 10.7132 13.4345 9.90681 13.698 9.04C13.961 8.17457 14.0629 7.23274 13.961 6.27347C13.927 5.95313 13.6397 5.72102 13.3194 5.75504C12.999 5.78906 12.7669 6.07632 12.8009 6.39666C12.8857 7.195 12.801 7.97969 12.5818 8.70078C12.3631 9.42049 12.0029 10.0917 11.5294 10.6711C11.0544 11.2525 10.4733 11.7414 9.81438 12.1098C9.16156 12.4749 8.41349 12.7158 7.60376 12.801C6.79728 12.8859 6.02018 12.8011 5.2991 12.5819C4.57939 12.3632 3.90818 12.003 3.32874 11.5295C2.74743 11.0546 2.25845 10.4734 1.89005 9.8145C1.52503 9.16168 1.2841 8.41361 1.19887 7.60388C1.11397 6.7974 1.1988 6.02031 1.41795 5.29923C1.63669 4.57951 1.9969 3.9083 2.47034 3.32887C2.94532 2.74755 3.52649 2.25858 4.18537 1.89017C4.83819 1.52515 5.58627 1.28422 6.396 1.19899ZM13.2412 2.36127C13.469 2.13348 13.469 1.76417 13.2412 1.53639C13.0135 1.3086 12.6441 1.3086 12.4164 1.53639L5.82943 8.12331L3.90875 6.20263C3.68097 5.97484 3.31165 5.97484 3.08387 6.20263C2.85608 6.43042 2.85608 6.79973 3.08387 7.02751L5.41699 9.36063C5.64478 9.58842 6.01409 9.58842 6.24188 9.36063L13.2412 2.36127Z" fill="black"/>
</g>
</g>
<defs>
<clipPath id="clip0_156_4601">
<rect width="14" height="14" fill="white"/>
</clipPath>
</defs>
</svg>

<svg xmlns="http://www.w3.org/2000/svg" fill="none" viewBox="0 0 14 14"><g clip-path="url(#a)"><path fill="#000" fill-rule="evenodd" d="M6.396 1.199c.806-.085 1.584 0 2.305.22A.583.583 0 1 0 9.04.301 7 7 0 0 0 6.274.039a6.9 6.9 0 0 0-2.658.833 7.2 7.2 0 0 0-2.049 1.719A6.94 6.94 0 0 0 .039 7.726a6.9 6.9 0 0 0 .833 2.658 7.2 7.2 0 0 0 1.719 2.049 6.94 6.94 0 0 0 5.135 1.528 6.9 6.9 0 0 0 2.658-.833 7.2 7.2 0 0 0 2.049-1.719 6.9 6.9 0 0 0 1.265-2.369c.263-.865.365-1.807.263-2.767a.583.583 0 1 0-1.16.124c.085.798 0 1.583-.22 2.304a5.8 5.8 0 0 1-1.052 1.97 6 6 0 0 1-1.715 1.439c-.652.365-1.4.606-2.21.691-.807.085-1.584 0-2.305-.22a5.8 5.8 0 0 1-1.97-1.051A6 6 0 0 1 1.89 9.815 5.8 5.8 0 0 1 1.2 7.604 5.775 5.775 0 0 1 2.47 3.329 6 6 0 0 1 4.185 1.89 5.8 5.8 0 0 1 6.396 1.2m6.845 1.162a.583.583 0 1 0-.825-.825L5.83 8.123l-1.92-1.92a.583.583 0 1 0-.825.825L5.417 9.36a.583.583 0 0 0 .825 0z" clip-rule="evenodd"/></g><defs><clipPath id="a"><path fill="#fff" d="M0 0h14v14H0z"/></clipPath></defs></svg>
